X:0169
M:2/4
L:1/8
Q:1/4=84
P:ABA % Aird uses a da capo
K:G
P:A
P:B
gd (c/B/)(A/G/)|(F/G/)(A/B/) Ac|Bd (c/B/)(A/G/)|d/(^c/d/e/)  d````(e/f/) |
gd (c/B/)(A/G/)|(F/G/)(A/B/) Ac|Bd (c/B/)(A/G/)|d````(d/e/) (d/c/)(B/A/)||

